X: 1
T: Gillan's Reel
C: P.Milne
R: reel
Z: 2005 John Chambers <jc:trillian.mit.edu>
S: two handwritten MSs, one BSFC and one unidentified
M: C|
L: 1/8
K: A
E \
| "A"A2cA "E7"B2dB | "A"c2ec "E7"dBGB | "A"A2ce "D"fgaf | "E7"edcB "A"AGFE |
| "A"AEAc "E7"BEBd | "A"cAce "E7"dBGB | "A"A2ce "D"fgaf | "E7"edcB "A"A3  :|
|: g \
| "F#m"a2fa "E"g2eg | "D"f2df  "A"ecBA | "F#m"a2fa "E"gaba | "B7"gfe^d "E"e2fg |
| "F#m"agfa "E"gfeg | "D"fedf "E7"edcB |   "A"A2ce "D"fgaf | "E7"ecdB  "A"A3  :|
